vendor/shopware/storefront/Resources/app/storefront/dist/assets/icon/default/content.svg

<?xml version="1.0" encoding="UTF-8"?>
<svg width="24px" height="24px" viewBox="0 0 24 24" version="1.1" xmlns="http://www.w3.org/2000/svg" xmlns:xlink="http://www.w3.org/1999/xlink">
    <!-- Generator: Sketch 54.1 (76490) - https://sketchapp.com -->
    <title>icons-default-symbol-content</title>
    <desc>Created with Sketch.</desc>
    <g id="icons-default-symbol-content" stroke="none" stroke-width="1" fill="none" fill-rule="evenodd">
        <path d="M11.0769231,24 C10.4821549,24 10,23.5522847 10,23 C10,22.4477153 10.4821549,22 11.0769231,22 L22.9230769,22 C23.5178451,22 24,22.4477153 24,23 C24,23.5522847 23.5178451,24 22.9230769,24 L11.0769231,24 Z M11.0769231,18 C10.4821549,18 10,17.5522847 10,17 C10,16.4477153 10.4821549,16 11.0769231,16 L22.9230769,16 C23.5178451,16 24,16.4477153 24,17 C24,17.5522847 23.5178451,18 22.9230769,18 L11.0769231,18 Z M11.0769231,12 C10.4821549,12 10,11.5522847 10,11 C10,10.4477153 10.4821549,10 11.0769231,10 L22.9230769,10 C23.5178451,10 24,10.4477153 24,11 C24,11.5522847 23.5178451,12 22.9230769,12 L11.0769231,12 Z M18,6 C18,6.55228475 17.5522847,7 17,7 C16.4477153,7 16,6.55228475 16,6 L16,3 C16,2.44771525 15.5522847,2 15,2 L3,2 C2.44771525,2 2,2.44771525 2,3 L2,15 C2,15.5522847 2.44771525,16 3,16 L6,16 C6.55228475,16 7,16.4477153 7,17 C7,17.5522847 6.55228475,18 6,18 L3,18 C1.34314575,18 3.33066907e-16,16.6568542 0,15 L0,3 C-1.66533454e-16,1.34314575 1.34314575,3.33066907e-16 3,0 L15,0 C16.6568542,-3.33066907e-16 18,1.34314575 18,3 L18,6 Z" id="Combined-Shape" fill="#758CA3"></path>
    </g>
</svg>

<svg width="24" height="24" viewBox="0 0 24 24" xmlns="http://www.w3.org/2000/svg"><g id="icons-default-symbol-content" stroke="none" stroke-width="1" fill="none" fill-rule="evenodd"><path d="M11.077 24C10.4821 24 10 23.5523 10 23s.4822-1 1.077-1h11.846c.5948 0 1.077.4477 1.077 1s-.4822 1-1.077 1H11.077zm0-6C10.4821 18 10 17.5523 10 17s.4822-1 1.077-1h11.846c.5948 0 1.077.4477 1.077 1s-.4822 1-1.077 1H11.077zm0-6C10.4821 12 10 11.5523 10 11s.4822-1 1.077-1h11.846c.5948 0 1.077.4477 1.077 1s-.4822 1-1.077 1H11.077zM18 6c0 .5523-.4477 1-1 1s-1-.4477-1-1V3c0-.5523-.4477-1-1-1H3c-.5523 0-1 .4477-1 1v12c0 .5523.4477 1 1 1h3c.5523 0 1 .4477 1 1s-.4477 1-1 1H3c-1.6569 0-3-1.3431-3-3V3c0-1.6569 1.3431-3 3-3h12c1.6569 0 3 1.3431 3 3v3z" id="Combined-Shape" fill="#758CA3"/></g></svg>
